X:1
T:Coquette -- Hornpipe
Z:Bob Puckette <bpuckette:msn.com> 2003-3-10
R:hornpipe
B:Cole's 1000 Fiddle Tunes
M:2/4
L:1/16
K:F
(ucB)|AFc"0"A fcaf|gabg fedc|dBAB G"4"AFG|EFDE .C2(cB)|
AFc"0"A fcaf|gabg fedc|dBAB cbge|f2f2f2:|
|:uc2|gabg "0"ecde|fefc agaf|gabg ecde|fefd cABG|
CFAc DGBd|EGce fefd|cfdf ebge|f2f2f2:|
